static/img/kroki/497f486d1ea5474e8cabb9fa839c48c2.svg

<?xml version="1.0" encoding="us-ascii" standalone="no"?><svg xmlns="http://www.w3.org/2000/svg" xmlns:xlink="http://www.w3.org/1999/xlink" contentStyleType="text/css" height="535px" preserveAspectRatio="none" style="width:471px;height:535px;" version="1.1" viewBox="0 0 471 535" width="471px" zoomAndPan="magnify"><defs/><g><!--class aws_resource--><g id="elem_aws_resource"><rect codeLine="23" fill="#3D176E" height="39.7891" id="aws_resource" rx="2.5" ry="2.5" style="stroke:#000D19;stroke-width:0.5;" width="155" x="158" y="167.79"/><ellipse cx="173" cy="187.6845" fill="#ADD1B2" rx="11" ry="11" style="stroke:#181818;stroke-width:1.0;"/><path d="M175.9688,193.3252 Q175.3906,193.622 174.75,193.7627 Q174.1094,193.9189 173.4063,193.9189 Q170.9063,193.9189 169.5781,192.2783 Q168.2656,190.622 168.2656,187.497 Q168.2656,184.372 169.5781,182.7158 Q170.9063,181.0595 173.4063,181.0595 Q174.1094,181.0595 174.75,181.2158 Q175.4063,181.372 175.9688,181.6689 L175.9688,184.3877 Q175.3438,183.8095 174.75,183.5439 Q174.1563,183.2627 173.5313,183.2627 Q172.1875,183.2627 171.5,184.3408 Q170.8125,185.4033 170.8125,187.497 Q170.8125,189.5908 171.5,190.6689 Q172.1875,191.7314 173.5313,191.7314 Q174.1563,191.7314 174.75,191.4658 Q175.3438,191.1845 175.9688,190.6064 L175.9688,193.3252 Z " fill="#000000"/><text fill="#D9B8FF" font-family="Helvetica" font-size="17" lengthAdjust="spacing" textLength="113" x="192" y="193.5698">aws_resource</text></g><!--class aws_sagemaker_inference_recommendations_job--><g id="elem_aws_sagemaker_inference_recommendations_job"><rect codeLine="26" fill="#3D176E" height="39.7891" id="aws_sagemaker_inference_recommendations_job" rx="2.5" ry="2.5" style="stroke:#000D19;stroke-width:0.5;" width="457" x="7" y="489.37"/><ellipse cx="22" cy="509.2645" fill="#ADD1B2" rx="11" ry="11" style="stroke:#181818;stroke-width:1.0;"/><path d="M24.9688,514.9052 Q24.3906,515.202 23.75,515.3427 Q23.1094,515.4989 22.4063,515.4989 Q19.9063,515.4989 18.5781,513.8583 Q17.2656,512.202 17.2656,509.077 Q17.2656,505.952 18.5781,504.2958 Q19.9063,502.6395 22.4063,502.6395 Q23.1094,502.6395 23.75,502.7958 Q24.4063,502.952 24.9688,503.2489 L24.9688,505.9677 Q24.3438,505.3895 23.75,505.1239 Q23.1563,504.8427 22.5313,504.8427 Q21.1875,504.8427 20.5,505.9208 Q19.8125,506.9833 19.8125,509.077 Q19.8125,511.1708 20.5,512.2489 Q21.1875,513.3114 22.5313,513.3114 Q23.1563,513.3114 23.75,513.0458 Q24.3438,512.7645 24.9688,512.1864 L24.9688,514.9052 Z " fill="#000000"/><text fill="#D9B8FF" font-family="Helvetica" font-size="17" lengthAdjust="spacing" textLength="415" x="41" y="515.1498">aws_sagemaker_inference_recommendations_job</text></g><!--class aws_sagemaker_job--><g id="elem_aws_sagemaker_job"><rect codeLine="29" fill="#3D176E" height="39.7891" id="aws_sagemaker_job" rx="2.5" ry="2.5" style="stroke:#000D19;stroke-width:0.5;" width="210" x="130.5" y="328.58"/><ellipse cx="145.5" cy="348.4745" fill="#ADD1B2" rx="11" ry="11" style="stroke:#181818;stroke-width:1.0;"/><path d="M148.4688,354.1152 Q147.8906,354.412 147.25,354.5527 Q146.6094,354.7089 145.9063,354.7089 Q143.4063,354.7089 142.0781,353.0683 Q140.7656,351.412 140.7656,348.287 Q140.7656,345.162 142.0781,343.5058 Q143.4063,341.8495 145.9063,341.8495 Q146.6094,341.8495 147.25,342.0058 Q147.9063,342.162 148.4688,342.4589 L148.4688,345.1777 Q147.8438,344.5995 147.25,344.3339 Q146.6563,344.0527 146.0313,344.0527 Q144.6875,344.0527 144,345.1308 Q143.3125,346.1933 143.3125,348.287 Q143.3125,350.3808 144,351.4589 Q144.6875,352.5214 146.0313,352.5214 Q146.6563,352.5214 147.25,352.2558 Q147.8438,351.9745 148.4688,351.3964 L148.4688,354.1152 Z " fill="#000000"/><text fill="#D9B8FF" font-family="Helvetica" font-size="17" lengthAdjust="spacing" textLength="168" x="164.5" y="354.3598">aws_sagemaker_job</text></g><!--class resource--><g id="elem_resource"><rect codeLine="32" fill="#3D176E" height="39.7891" id="resource" rx="2.5" ry="2.5" style="stroke:#000D19;stroke-width:0.5;" width="113" x="179" y="7"/><ellipse cx="194" cy="26.8945" fill="#ADD1B2" rx="11" ry="11" style="stroke:#181818;stroke-width:1.0;"/><path d="M196.9688,32.5352 Q196.3906,32.832 195.75,32.9727 Q195.1094,33.1289 194.4063,33.1289 Q191.9063,33.1289 190.5781,31.4883 Q189.2656,29.832 189.2656,26.707 Q189.2656,23.582 190.5781,21.9258 Q191.9063,20.2695 194.4063,20.2695 Q195.1094,20.2695 195.75,20.4258 Q196.4063,20.582 196.9688,20.8789 L196.9688,23.5977 Q196.3438,23.0195 195.75,22.7539 Q195.1563,22.4727 194.5313,22.4727 Q193.1875,22.4727 192.5,23.5508 Q191.8125,24.6133 191.8125,26.707 Q191.8125,28.8008 192.5,29.8789 Q193.1875,30.9414 194.5313,30.9414 Q195.1563,30.9414 195.75,30.6758 Q196.3438,30.3945 196.9688,29.8164 L196.9688,32.5352 Z " fill="#000000"/><text fill="#D9B8FF" font-family="Helvetica" font-size="17" lengthAdjust="spacing" textLength="71" x="213" y="32.7798">resource</text></g><!--reverse link resource to aws_resource--><g id="link_resource_aws_resource"><path codeLine="35" d="M235.5,65.05 C235.5,95.57 235.5,136.9 235.5,167.47 " fill="none" id="resource-backto-aws_resource" style="stroke:#FFAF37;stroke-width:2.0;"/><polygon fill="none" points="235.5,47.05,229.5,65.05,241.5,65.05,235.5,47.05" style="stroke:#FFAF37;stroke-width:2.0;"/></g><!--reverse link aws_sagemaker_job to aws_sagemaker_inference_recommendations_job--><g id="link_aws_sagemaker_job_aws_sagemaker_inference_recommendations_job"><path codeLine="36" d="M235.5,386.63 C235.5,417.15 235.5,458.48 235.5,489.04 " fill="none" id="aws_sagemaker_job-backto-aws_sagemaker_inference_recommendations_job" style="stroke:#FFAF37;stroke-width:2.0;"/><polygon fill="none" points="235.5,368.63,229.5,386.63,241.5,386.63,235.5,368.63" style="stroke:#FFAF37;stroke-width:2.0;"/></g><!--reverse link aws_resource to aws_sagemaker_job--><g id="link_aws_resource_aws_sagemaker_job"><path codeLine="37" d="M235.5,225.84 C235.5,256.36 235.5,297.69 235.5,328.25 " fill="none" id="aws_resource-backto-aws_sagemaker_job" style="stroke:#FFAF37;stroke-width:2.0;"/><polygon fill="none" points="235.5,207.84,229.5,225.84,241.5,225.84,235.5,207.84" style="stroke:#FFAF37;stroke-width:2.0;"/></g><!--SRC=[ZP1BRy8m48Jl-HMME2D1KGj8lG1IrLvGLNf76tiDRc9lj7QAwEE_bvIMEWcF7htpUNPcrqQXG5k4hR1eKsIV-Cou0XYic33JPaOviUXe3NemR8ftvC95O0uMnJtchnYCX2Rnl3OoS-Yzk8gaASXinLGwjRSF3Cxl97GXecOvU3y9WKrQ1ep2g74wqhf9Daqx0zKVtc0B8rR8FqYlrrFzSHEvkEfixmEnC6ye-l7HvXIm5RErufiwcx8Yef2jeh_woOoFe9HnAt4TpPxscTWXr-QBDIZQLBI6tCThV4162ji2PwrME1ufFJmAFvo24rcTJi36BnazbInHl2V9PpJti48B6VBIEBqpT19th2HhqIa8XfnVlb1w-bj3hEyvl6u_kjrkBKZIjlc3_faggJKxzhs2lW00]--></g></svg>

<svg xmlns="http://www.w3.org/2000/svg" width="471" height="535" viewBox="0 0 471 535"><rect width="155" height="39.789" x="158" y="167.79" fill="#3D176E" rx="2.5" ry="2.5" style="stroke:#000d19;stroke-width:.5"/><circle cx="173" cy="187.685" r="11" fill="#ADD1B2" style="stroke:#181818;stroke-width:1"/><path d="M175.969 193.325q-.578.297-1.219.438-.64.156-1.344.156-2.5 0-3.828-1.64-1.312-1.657-1.312-4.782t1.312-4.781q1.328-1.656 3.828-1.656.703 0 1.344.156.656.156 1.219.453v2.719q-.625-.578-1.219-.844-.594-.281-1.219-.281-1.344 0-2.031 1.078-.687 1.062-.687 3.156t.687 3.172q.688 1.062 2.031 1.062.625 0 1.219-.265.594-.281 1.219-.86z"/><text x="192" y="193.57" fill="#D9B8FF" font-family="Helvetica" font-size="17" textLength="113">aws_resource</text><rect width="457" height="39.789" x="7" y="489.37" fill="#3D176E" rx="2.5" ry="2.5" style="stroke:#000d19;stroke-width:.5"/><circle cx="22" cy="509.264" r="11" fill="#ADD1B2" style="stroke:#181818;stroke-width:1"/><path d="M24.969 514.905q-.578.297-1.219.438-.64.156-1.344.156-2.5 0-3.828-1.64-1.312-1.657-1.312-4.782t1.312-4.781q1.328-1.656 3.828-1.656.703 0 1.344.156.656.156 1.219.453v2.719q-.625-.579-1.219-.844-.594-.281-1.219-.281-1.343 0-2.031 1.078-.687 1.062-.687 3.156t.687 3.172q.688 1.062 2.031 1.062.625 0 1.219-.265.594-.282 1.219-.86z"/><text x="41" y="515.15" fill="#D9B8FF" font-family="Helvetica" font-size="17" textLength="415">aws_sagemaker_inference_recommendations_job</text><rect width="210" height="39.789" x="130.5" y="328.58" fill="#3D176E" rx="2.5" ry="2.5" style="stroke:#000d19;stroke-width:.5"/><circle cx="145.5" cy="348.474" r="11" fill="#ADD1B2" style="stroke:#181818;stroke-width:1"/><path d="M148.469 354.115q-.578.297-1.219.438-.64.156-1.344.156-2.5 0-3.828-1.64-1.312-1.657-1.312-4.782t1.312-4.781q1.328-1.656 3.828-1.656.703 0 1.344.156.656.156 1.219.453v2.719q-.625-.579-1.219-.844-.594-.281-1.219-.281-1.344 0-2.031 1.078-.687 1.062-.687 3.156t.687 3.172q.688 1.062 2.031 1.062.625 0 1.219-.265.594-.281 1.219-.86z"/><text x="164.5" y="354.36" fill="#D9B8FF" font-family="Helvetica" font-size="17" textLength="168">aws_sagemaker_job</text><rect width="113" height="39.789" x="179" y="7" fill="#3D176E" rx="2.5" ry="2.5" style="stroke:#000d19;stroke-width:.5"/><circle cx="194" cy="26.895" r="11" fill="#ADD1B2" style="stroke:#181818;stroke-width:1"/><path d="M196.969 32.535q-.578.297-1.219.438-.64.156-1.344.156-2.5 0-3.828-1.64-1.312-1.657-1.312-4.782t1.312-4.781q1.328-1.656 3.828-1.656.703 0 1.344.156.656.156 1.219.453v2.719q-.625-.578-1.219-.844-.594-.281-1.219-.281-1.344 0-2.031 1.078-.687 1.062-.687 3.156t.687 3.172q.688 1.062 2.031 1.062.625 0 1.219-.265.594-.281 1.219-.86z"/><text x="213" y="32.78" fill="#D9B8FF" font-family="Helvetica" font-size="17" textLength="71">resource</text><path fill="none" d="M235.5 65.05v102.42m0-120.42-6 18h12zm0 339.58v102.41m0-120.41-6 18h12zm0-142.79v102.41m0-120.41-6 18h12z" style="stroke:#ffaf37;stroke-width:2"/></svg>
